azure-icons/command-1031-Table.svg

<svg xmlns="http://www.w3.org/2000/svg" viewBox="0 0 13 12"><path d="M0 0h13v12H0zm1 2h11V1H1zm3 3V3H1v2zM1 6v2h3V6zm3 5V9H1v2zm4-6V3H5v2zM5 6v2h3V6zm3 5V9H5v2zm4-6V3H9v2zm0 3V6H9v2zm0 3V9H9v2z"/></svg>

<svg xmlns="http://www.w3.org/2000/svg" viewBox="0 0 13 12"><title>Asset 96Table</title><path d="M0,0H13V12H0ZM1,2H12V1H1ZM4,5V3H1V5ZM1,6V8H4V6Zm3,5V9H1v2ZM8,5V3H5V5ZM5,6V8H8V6Zm3,5V9H5v2Zm4-6V3H9V5Zm0,3V6H9V8Zm0,3V9H9v2Z"/></svg>
